X:637
T: WER LEUCHTET UNS DENN BEI DER FINSTREN NACHT
N: E2003
O: Europa, Mitteleuropa, Deutschland, Hessen, Hanau
R: geistlich, Trost -, Lob - Lied
M: 4/4
L: 1/8
K: D
FG | A2A2A2Bc | d2FGA2
Bc | d2F2E2C2 | D4z2
A2 | d3efedc | c2B2B2
Bc | d2ddedcB | A2G2F2
Ac | d2F2E2C2 | D4z2

@@@ Tune index: 5321
